ix/driving_outline.svg

<svg viewBox="0 0 24 24" fill="none" xmlns="http://www.w3.org/2000/svg" height="1em" width="1em">
  <path d="M17.8005 8.67999H6.20054C5.97054 8.67999 5.76053 8.58002 5.62053 8.40002C5.48053 8.22002 5.42054 7.99002 5.47054 7.77002L6.29053 3.84998C6.56053 2.55998 7.15054 1.25 9.45054 1.25H14.5505C16.8605 1.25 17.4505 2.56998 17.7105 3.84998L18.5305 7.77002C18.5805 7.99002 18.5205 8.22002 18.3805 8.40002C18.2405 8.58002 18.0305 8.67999 17.8005 8.67999ZM7.12053 7.17999H16.8705L16.2405 4.16998C16.0405 3.20998 15.8105 2.76001 14.5405 2.76001H9.44054C8.18054 2.76001 7.94055 3.20998 7.74055 4.16998L7.12053 7.17999Z" fill="#292D32"/>
  <path d="M17.7703 16.65H16.4103C15.0903 16.65 14.8203 15.83 14.6703 15.39L14.5203 14.95C14.3603 14.47 14.3603 14.4699 13.8503 14.4699H10.1403C9.63033 14.4699 9.63033 14.48 9.47033 14.95L9.32034 15.39C9.17034 15.83 8.90033 16.65 7.58033 16.65H6.22033C5.59033 16.65 4.98033 16.3799 4.56033 15.9199C4.15033 15.4699 3.94033 14.8599 4.00033 14.2499L4.41034 9.83997C4.54034 8.45997 4.99033 7.17993 7.37033 7.17993H16.6203C19.0003 7.17993 19.4503 8.45997 19.5803 9.83997L19.9903 14.2599C20.0503 14.8699 19.8403 15.4799 19.4303 15.9299C19.0103 16.3899 18.4003 16.65 17.7703 16.65ZM16.1803 15.14C16.2003 15.14 16.2803 15.15 16.4103 15.15H17.7703C17.9803 15.15 18.1803 15.0699 18.3203 14.9099C18.4503 14.7699 18.5103 14.58 18.5003 14.39L18.0903 9.96991C18.0103 9.07991 17.9703 8.66992 16.6303 8.66992H7.38034C6.04034 8.66992 6.00033 9.07991 5.92033 9.96991L5.51033 14.39C5.49033 14.58 5.55034 14.7699 5.69034 14.9099C5.83034 15.0599 6.03034 15.15 6.24034 15.15H7.60034C7.80034 15.15 7.86033 15.1199 7.87033 15.1199C7.86033 15.1199 7.89033 14.9999 7.92033 14.9199L8.07034 14.4799C8.26034 13.9199 8.57034 12.9699 10.1603 12.9699H13.8703C15.3203 12.9699 15.6903 13.68 15.9503 14.46L16.1003 14.9099C16.1203 14.9999 16.1503 15.1 16.1803 15.14C16.1703 15.14 16.1803 15.14 16.1803 15.14Z" fill="#292D32"/>
  <path d="M6.2007 6.5H5.4707C5.0607 6.5 4.7207 6.16 4.7207 5.75C4.7207 5.34 5.0607 5 5.4707 5H6.2007C6.6107 5 6.9507 5.34 6.9507 5.75C6.9507 6.16 6.6107 6.5 6.2007 6.5Z" fill="#292D32"/>
  <path d="M18.5308 6.5H17.8008C17.3908 6.5 17.0508 6.16 17.0508 5.75C17.0508 5.34 17.3908 5 17.8008 5H18.5308C18.9408 5 19.2808 5.34 19.2808 5.75C19.2808 6.16 18.9408 6.5 18.5308 6.5Z" fill="#292D32"/>
  <path d="M9.82063 11.5801H7.64062C7.23063 11.5801 6.89062 11.2401 6.89062 10.8301C6.89062 10.4201 7.23063 10.0801 7.64062 10.0801H9.82063C10.2306 10.0801 10.5706 10.4201 10.5706 10.8301C10.5706 11.2401 10.2406 11.5801 9.82063 11.5801Z" fill="#292D32"/>
  <path d="M16.3499 11.5801H14.1699C13.7599 11.5801 13.4199 11.2401 13.4199 10.8301C13.4199 10.4201 13.7599 10.0801 14.1699 10.0801H16.3499C16.7599 10.0801 17.0999 10.4201 17.0999 10.8301C17.0999 11.2401 16.7599 11.5801 16.3499 11.5801Z" fill="#292D32"/>
  <path d="M12 18.75C11.59 18.75 11.25 18.41 11.25 18V17C11.25 16.59 11.59 16.25 12 16.25C12.41 16.25 12.75 16.59 12.75 17V18C12.75 18.41 12.41 18.75 12 18.75Z" fill="#292D32"/>
  <path d="M12 22.75C11.59 22.75 11.25 22.41 11.25 22V21C11.25 20.59 11.59 20.25 12 20.25C12.41 20.25 12.75 20.59 12.75 21V22C12.75 22.41 12.41 22.75 12 22.75Z" fill="#292D32"/>
  <path d="M2.00009 22.7501C1.94009 22.7501 1.8801 22.7401 1.8201 22.7301C1.4201 22.6301 1.1701 22.2201 1.2701 21.8201L2.2701 17.8201C2.3701 17.4201 2.77009 17.1701 3.18009 17.2701C3.58009 17.3701 3.83009 17.7801 3.73009 18.1801L2.73009 22.1801C2.64009 22.5201 2.34009 22.7501 2.00009 22.7501Z" fill="#292D32"/>
  <path d="M22.0007 22.7499C21.6607 22.7499 21.3607 22.5199 21.2707 22.1799L20.2707 18.1799C20.1707 17.7799 20.4107 17.3699 20.8207 17.2699C21.2207 17.1699 21.6307 17.4099 21.7307 17.8199L22.7307 21.8199C22.8307 22.2199 22.5907 22.6299 22.1807 22.7299C22.1207 22.7399 22.0607 22.7499 22.0007 22.7499Z" fill="#292D32"/>
</svg>

<svg viewBox="0 0 24 24" fill="none" xmlns="http://www.w3.org/2000/svg" height="1em" width="1em">
  <path d="M17.8 8.68H6.2c-.23 0-.44-.1-.58-.28a.757.757 0 0 1-.15-.63l.82-3.92c.27-1.29.86-2.6 3.16-2.6h5.1c2.31 0 2.9 1.32 3.16 2.6l.82 3.92c.05.22-.01.45-.15.63-.14.18-.35.28-.58.28ZM7.12 7.18h9.75l-.63-3.01c-.2-.96-.43-1.41-1.7-1.41h-5.1c-1.26 0-1.5.45-1.7 1.41l-.62 3.01Z" fill="#292D32"/>
  <path d="M17.77 16.65h-1.36c-1.32 0-1.59-.82-1.74-1.26l-.15-.44c-.16-.48-.16-.48-.67-.48h-3.71c-.51 0-.51.01-.67.48l-.15.44c-.15.44-.42 1.26-1.74 1.26H6.22c-.63 0-1.24-.27-1.66-.73-.41-.45-.62-1.06-.56-1.67l.41-4.41c.13-1.38.58-2.66 2.96-2.66h9.25c2.38 0 2.83 1.28 2.96 2.66l.41 4.42c.06.61-.15 1.22-.56 1.67-.42.46-1.03.72-1.66.72Zm-1.59-1.51c.02 0 .1.01.23.01h1.36a.72.72 0 0 0 .73-.76l-.41-4.42c-.08-.89-.12-1.3-1.46-1.3H7.38c-1.34 0-1.38.41-1.46 1.3l-.41 4.42c-.02.19.04.38.18.52.14.15.34.24.55.24H7.6c.2 0 .26-.03.27-.03-.01 0 .02-.12.05-.2l.15-.44c.19-.56.5-1.51 2.09-1.51h3.71c1.45 0 1.82.71 2.08 1.49l.15.45c.02.09.05.19.08.23-.01 0 0 0 0 0ZM6.2 6.5h-.73c-.41 0-.75-.34-.75-.75S5.06 5 5.47 5h.73c.41 0 .75.34.75.75s-.34.75-.75.75Zm12.33 0h-.73c-.41 0-.75-.34-.75-.75s.34-.75.75-.75h.73c.41 0 .75.34.75.75s-.34.75-.75.75Z" fill="#292D32"/>
  <path d="M9.82 11.58H7.64c-.41 0-.75-.34-.75-.75s.34-.75.75-.75h2.18a.749.749 0 1 1 0 1.5Zm6.53 0h-2.18c-.41 0-.75-.34-.75-.75s.34-.75.75-.75h2.18c.41 0 .75.34.75.75s-.34.75-.75.75ZM12 18.75c-.41 0-.75-.34-.75-.75v-1c0-.41.34-.75.75-.75s.75.34.75.75v1c0 .41-.34.75-.75.75Zm0 4c-.41 0-.75-.34-.75-.75v-1c0-.41.34-.75.75-.75s.75.34.75.75v1c0 .41-.34.75-.75.75Zm-10 0c-.06 0-.12-.01-.18-.02-.4-.1-.65-.51-.55-.91l1-4a.75.75 0 1 1 1.46.36l-1 4c-.09.34-.39.57-.73.57Zm20 0c-.34 0-.64-.23-.73-.57l-1-4c-.1-.4.14-.81.55-.91.4-.1.81.14.91.55l1 4a.748.748 0 0 1-.73.93Z" fill="#292D32"/>
</svg>
